X: 1
T:Belly Wassail
M:3/4
L:1/8
C:Traditional: Camborne
S:Minners and Thomas
R:3/4
K:D
D>/3E|F2D>/2EF>/2G|A2A2A>/2A|B2B2B2|A4A>/2A|B3cdB|A2F2A>/2A|GGF2E|D4F2|E
4G2|F4A2|A2d2B2|A4A>A|B3cdB|A2F2A2|G2F2E2|D4||
